X:1284
T:Beautiful Goretree
M:4/4
L:1/8
C:Tommy Peoples
R:reel
D:Tommy Peoples: The Quiet Glen
Z:Devin McCabe
K:E
E2GB Bc2f | gffe cBGF | E2GB cG (3GGG | G2eG EFGF |
!E2GB fgbg | fegf ecBe | fgfe cBec | BEGF E4 :|
!:g2fe bege | efge ceBe | gffe b3B | c2-~c2 ceef |
!g2fe bege | efge Bc3 | bgfe fgec | Bcef gee2 :|
!BE (3EEE GFEG | (3BBB GB egbg | feaf g3b | bgfe BcBG |
!E2 (3EEE GFEG | (3BBB GB egbg | feaf g3e | Bcef gee2 |
!BE (3EEE E2GB | cBGB g4 | ~f3a ~g3b | bgfe BcBG |
!E2 (3EEE GFEG | (3BBB GB egbg | feaf g3e | Bcef gee2 ||


